public/static/img/finance/hot.svg

<svg width="33" height="24" viewBox="0 0 33 24" fill="none" xmlns="http://www.w3.org/2000/svg">
<path d="M0 0H17C25.8366 0 33 7.16344 33 16V24H16C7.16344 24 0 16.8366 0 8V0Z" fill="url(#paint0_linear_164_2550)"/>
<path fill-rule="evenodd" clip-rule="evenodd" d="M21.657 7.73785C22.3486 8.41215 22.9246 9.2 23.2708 10.1C23.6163 11 23.8468 12.0122 23.8468 13.025C23.8494 13.9469 23.667 14.86 23.3105 15.7103C22.954 16.5605 22.4306 17.3306 21.7713 17.975C21.1953 18.5372 20.388 19.1 19.5822 19.4372C18.7749 19.775 17.8528 20 16.9306 20C16.0085 20 15.0863 19.775 14.2798 19.4378C12.666 18.7622 11.2835 17.4128 10.5912 15.725C9.78464 13.8128 9.78464 11.675 10.7068 9.875C11.1679 8.86215 11.8595 8.075 12.666 7.4C13.0272 7.16033 13.3402 6.85505 13.5889 6.5C14.0499 6.05 14.2805 5.48785 14.511 4.925C14.7416 4.475 14.7416 3.91285 14.7416 3.23785V2.11285C14.7416 2 14.8565 2 14.9721 2L15.7786 2.56215C16.9313 3.23785 17.7379 4.13715 18.4295 5.375C19.2367 6.83785 19.5822 8.18785 19.4673 9.425V9.53715H19.6978C20.0433 9.08785 20.3887 8.525 20.5036 8.075L20.8498 7.28785C20.894 7.28785 20.9213 7.27135 20.9446 7.25728C20.9822 7.23455 21.0093 7.21815 21.0803 7.28785L21.657 7.73785ZM12.421 11.1994H11.773V15.1538H12.421V13.4037H14.4259V15.1538H15.0739V11.1994H14.4259V12.8498H12.421V11.1994ZM18.6877 11.7089C18.3409 11.3178 17.8646 11.1218 17.2588 11.1218C16.6461 11.1218 16.1691 11.3198 15.8299 11.7145C15.501 12.0876 15.337 12.5764 15.337 13.1822C15.337 13.7838 15.501 14.2712 15.8299 14.6443C16.1767 15.0355 16.653 15.2314 17.2588 15.2314C17.8639 15.2314 18.3409 15.0375 18.6877 14.6498C19.02 14.2767 19.1862 13.7879 19.1862 13.1822C19.1862 12.5695 19.02 12.0779 18.6877 11.7089ZM16.3062 12.1077C16.5353 11.8308 16.8524 11.6923 17.2588 11.6923C17.6728 11.6923 17.9878 11.8232 18.2059 12.0855C18.424 12.3548 18.5327 12.7204 18.5327 13.1822C18.5327 13.6439 18.424 14.0053 18.2059 14.2677C17.9843 14.5294 17.6687 14.6609 17.2588 14.6609C16.8455 14.6609 16.5277 14.5245 16.3062 14.2511C16.0923 13.9887 15.985 13.6322 15.985 13.1822C15.985 12.728 16.0916 12.3701 16.3062 12.1077ZM22.3847 11.1994H19.1447V11.7532H20.4407V15.1538H21.0887V11.7532H22.3847V11.1994Z" fill="white"/>
<defs>
<linearGradient id="paint0_linear_164_2550" x1="16.5" y1="0" x2="16.5" y2="24" gradientUnits="userSpaceOnUse">
<stop stop-color="#FFA346"/>
<stop offset="1" stop-color="#FC2600"/>
</linearGradient>
</defs>
</svg>

<svg width="33" height="24" fill="none" xmlns="http://www.w3.org/2000/svg"><path d="M0 0h17c8.837 0 16 7.163 16 16v8H16C7.163 24 0 16.837 0 8V0Z" fill="url(#a)"/><path fill-rule="evenodd" clip-rule="evenodd" d="M21.657 7.738c.692.674 1.268 1.462 1.614 2.362.345.9.576 1.912.576 2.925a6.895 6.895 0 0 1-2.076 4.95 7.396 7.396 0 0 1-2.189 1.462c-.807.338-1.73.563-2.651.563-.922 0-1.845-.225-2.651-.562a6.934 6.934 0 0 1-3.689-3.713c-.806-1.912-.806-4.05.116-5.85.46-1.013 1.152-1.8 1.959-2.475.361-.24.674-.545.923-.9.46-.45.691-1.012.922-1.575.23-.45.23-1.012.23-1.687V2.113c0-.113.116-.113.231-.113l.807.562c1.152.676 1.959 1.575 2.65 2.813.808 1.463 1.153 2.813 1.038 4.05v.112h.23c.346-.45.692-1.012.807-1.462l.346-.787c.044 0 .071-.017.095-.03.037-.023.064-.04.135.03l.577.45Zm-9.236 3.461h-.648v3.955h.648v-1.75h2.005v1.75h.648v-3.955h-.648v1.65H12.42V11.2Zm6.267.51c-.347-.391-.823-.587-1.43-.587-.612 0-1.089.198-1.428.592-.329.374-.493.862-.493 1.468 0 .602.164 1.09.493 1.462.347.392.823.587 1.429.587.605 0 1.082-.194 1.429-.581.332-.373.498-.862.498-1.468 0-.613-.166-1.104-.498-1.473Zm-2.382.399c.23-.277.546-.416.953-.416.414 0 .729.131.947.393.218.27.327.635.327 1.097 0 .462-.109.823-.327 1.086-.222.261-.537.393-.947.393-.413 0-.731-.136-.953-.41-.214-.262-.321-.619-.321-1.069 0-.454.107-.812.321-1.074Zm6.079-.909h-3.24v.554h1.296v3.4h.648v-3.4h1.296V11.2Z" fill="#fff"/><defs><linearGradient id="a" x1="16.5" y1="0" x2="16.5" y2="24" gradientUnits="userSpaceOnUse"><stop stop-color="#FFA346"/><stop offset="1" stop-color="#FC2600"/></linearGradient></defs></svg>
